src/assets/icons/sort-amount-up.svg

<svg width="14" height="14" viewBox="0 0 14 14" fill="none" xmlns="http://www.w3.org/2000/svg">
<g id="sort-amount-up">
<g clip-path="url(#clip0_156_4669)">
<path id="Vector" fill-rule="evenodd" clip-rule="evenodd" d="M2.90198 0.0514016C2.82208 0.0844595 2.74722 0.133463 2.68228 0.198411L0.424211 2.45648C0.159662 2.72102 0.159662 3.14994 0.424211 3.41449C0.68876 3.67904 1.11768 3.67904 1.38223 3.41449L2.48386 2.31285V13.3226C2.48386 13.6967 2.78716 14 3.16128 14C3.53541 14 3.8387 13.6967 3.8387 13.3226V2.31285L4.94034 3.41449C5.20489 3.67904 5.63381 3.67904 5.89836 3.41449C6.1629 3.14994 6.1629 2.72102 5.89836 2.45648L3.64029 0.198411C3.50911 0.0672323 3.33752 0.00109963 3.16559 1.34025e-05L3.16128 0L3.15698 1.34028e-05C3.06669 0.000575501 2.9806 0.0187984 2.90198 0.0514016ZM6.54838 5.19355C6.54838 4.81942 6.85167 4.51613 7.2258 4.51613H13.0968C13.4709 4.51613 13.7742 4.81942 13.7742 5.19355C13.7742 5.56768 13.4709 5.87097 13.0968 5.87097H7.2258C6.85167 5.87097 6.54838 5.56768 6.54838 5.19355ZM7.2258 9.93548C6.85167 9.93548 6.54838 10.2388 6.54838 10.6129C6.54838 10.987 6.85167 11.2903 7.2258 11.2903H9.48386C9.85799 11.2903 10.1613 10.987 10.1613 10.6129C10.1613 10.2388 9.85799 9.93548 9.48386 9.93548H7.2258ZM6.54838 13.3226C6.54838 12.9485 6.85167 12.6452 7.2258 12.6452H7.67741C8.05154 12.6452 8.35483 12.9485 8.35483 13.3226C8.35483 13.6967 8.05154 14 7.67741 14H7.2258C6.85167 14 6.54838 13.6967 6.54838 13.3226ZM7.2258 7.22581C6.85167 7.22581 6.54838 7.5291 6.54838 7.90323C6.54838 8.27735 6.85167 8.58064 7.2258 8.58064H11.2903C11.6644 8.58064 11.9677 8.27735 11.9677 7.90323C11.9677 7.5291 11.6644 7.22581 11.2903 7.22581H7.2258Z" fill="black"/>
</g>
</g>
<defs>
<clipPath id="clip0_156_4669">
<rect width="14" height="14" fill="white"/>
</clipPath>
</defs>
</svg>

<svg xmlns="http://www.w3.org/2000/svg" fill="none" viewBox="0 0 14 14"><g clip-path="url(#a)"><path fill="#000" fill-rule="evenodd" d="M2.902.051a.7.7 0 0 0-.22.147L.424 2.456a.677.677 0 1 0 .958.958l1.102-1.101v11.01a.677.677 0 0 0 1.355 0V2.313L4.94 3.414a.677.677 0 0 0 .958-.958L3.64.198A.68.68 0 0 0 3.166 0h-.009a.7.7 0 0 0-.255.051m3.646 5.143c0-.375.304-.678.678-.678h5.87a.677.677 0 0 1 0 1.355h-5.87a.677.677 0 0 1-.678-.677m.678 4.741a.677.677 0 0 0 0 1.355h2.258a.677.677 0 1 0 0-1.355zm-.678 3.388c0-.375.304-.678.678-.678h.451a.677.677 0 0 1 0 1.355h-.451a.677.677 0 0 1-.678-.677m.678-6.097a.677.677 0 1 0 0 1.355h4.064a.677.677 0 0 0 0-1.355z" clip-rule="evenodd"/></g><defs><clipPath id="a"><path fill="#fff" d="M0 0h14v14H0z"/></clipPath></defs></svg>
